X:591
T:Portesham Breakfast
M:2/2
L:1/4
S:Colin Hume's website,  colinhume.com  - chords can also be printed below the stave.
Q:1/2=95
C:Richard Jones, 2002
N:Richard wrote this in 4:4, which would mean four steps to the bar.
K:G
P:A
| D GA |: "G"B3 B/A/ | "/"Bc de | "D/F#"A3 A/G/ | "/"AB cd |\
"Em"G3 "C"e- | "/"e "Am"c2 B | "D"AB/A/ GA/G/ | "/"FD GA |
"G"B3 B/A/ | "/"Bc de | "D/F#"A3 A/G/ | "/"AB cd |\
"Em"G3 "C"e- | "/"e "Am"c2 B | "D"AB/A/ GF | "G"GD GA :|
P:B
|: "G"BG B "C/G"c- | "/"c3 B | "D/G"c3/B/ AG | "G"Bd gf |\
"C"e3/f/ e "G/B"d- | "/"dB GA | "G"BG dB | "D"AB/A/ "D/D#"GA |
"Em"BG B "Am"c- | "/"c3B | "D7"c3/B/ AG | "G"Bd gf |\
"C"e3/f/ e "G/B"d- | "/"dB GA | "D"B B/A/ GF | "G"GD GA :|
%%textfont Times-Roman-Bold 20
%%center Alternative A-music for second and fourth times through the dance
P:A
|: "G"B3 d | "/"gfed | "D/F#"d3 d | "/"fedc |\
"Em"c3/d/ "C"ec- | "/"c "Am"A2G | "D"FG/F/ E F/E/ | "/"D2 Bc |
"G"d3 d | "/"gfed | "D/F#"d3 d | "/"fedc |\
"Em"c3/d/ "C"ec- | "/"c "Am"A2G | "D"FG/F/ EF | "G"GD GA :|

